X: 20846
T: Johnston's
R: hornpipe
M: 4/4
K: Gmajor
(3Bc^c|dBgd ^cgec|dBgd ^cgec|(3d^cd fe d^c=cB|A^GAB A2Bc|
dBgd ^cgec|dBgd ^cgec|(3d^cd fe d^c=cB|A^GAB G2:|
|:F2|EFGA BGEB|cBFB BGEG|(3FGF B,2 (3FGF B,2|FB,^DF BAGF|EFGA BGEB|cBFB BGEG|FB,^DF B3c|BAGF E:|

